svg/bodycam.svg

<?xml version="1.0" encoding="UTF-8"?>
<svg xmlns="http://www.w3.org/2000/svg" xmlns:xlink="http://www.w3.org/1999/xlink" width="30px" height="32px" viewBox="0 0 30 32" version="1.1">
<g id="surface1">
<path style="fill:none;stroke-width:2;stroke-linecap:round;stroke-linejoin:round;stroke:rgb(82.745099%,82.745099%,82.745099%);stroke-opacity:1;stroke-miterlimit:4;" d="M 30 27.507812 C 31.958333 25.273438 34.908333 24.171875 37.858333 24.578125 C 40.8 24.976562 43.35 26.828125 44.641667 29.507812 C 47.808333 35.828125 42.55 42.507812 36.4 42.320312 C 35.725 42.3125 35.058333 42.242188 34.4 42.101562 C 29.133333 40.851562 26.6 36.679688 26.3 31.742188 C 26.216667 28.390625 26.691667 25.0625 27.708333 21.867188 C 28.291667 19.796875 29.383333 16.570312 32.016667 16.570312 L 41.666667 16.570312 C 42.833333 16.570312 43.875 17.273438 44.316667 18.351562 L 45.958333 22.351562 C 50.725 22.351562 54.591667 26.210938 54.591667 30.976562 L 54.591667 39 C 54.591667 43.757812 50.758333 47.617188 46 47.640625 L 20.608333 47.640625 C 15.85 47.632812 11.991667 43.765625 12 39 L 12 31.117188 C 12 26.351562 15.866667 22.492188 20.633333 22.492188 C 22.466667 22.492188 23.958333 21 23.958333 19.15625 L 23.958333 19 L 17 19 L 17 20.296875 " transform="matrix(0.46875,0,0,0.5,0,0)"/>
<path style="fill:none;stroke-width:2;stroke-linecap:round;stroke-linejoin:round;stroke:rgb(82.745099%,82.745099%,82.745099%);stroke-opacity:1;stroke-miterlimit:4;" d="M 36.4 29.296875 C 34.141667 29.296875 32.308333 31.132812 32.308333 33.390625 C 32.308333 35.648438 34.141667 37.476562 36.4 37.476562 C 38.658333 37.476562 40.491667 35.648438 40.491667 33.390625 " transform="matrix(0.46875,0,0,0.5,0,0)"/>
<path style=" stroke:none;fill-rule:nonzero;fill:rgb(82.745099%,82.745099%,82.745099%);fill-opacity:1;" d="M 18.980469 15.273438 C 18.980469 15 18.769531 14.773438 18.511719 14.773438 C 18.253906 14.773438 18.042969 15 18.042969 15.273438 C 18.042969 15.550781 18.253906 15.773438 18.511719 15.773438 C 18.769531 15.773438 18.980469 15.550781 18.980469 15.273438 Z M 18.980469 15.273438 "/>
</g>
</svg>

<svg viewBox="0 0 64 64" id="Layer_1" data-name="Layer 1" xmlns="http://www.w3.org/2000/svg" fill="#D3D3D3"><g id="SVGRepo_bgCarrier" stroke-width="0"></g><g id="SVGRepo_tracerCarrier" stroke-linecap="round" stroke-linejoin="round"></g><g id="SVGRepo_iconCarrier"><defs><style>.cls-1{fill:none;stroke:#D3D3D3;stroke-linecap:round;stroke-linejoin:round;stroke-width:2px;}</style></defs><title>camera, cam, device, photography</title><path class="cls-1" d="M30,27.51a8.86,8.86,0,0,1,14.64,2c3.17,6.32-2.09,13-8.24,12.81a9.91,9.91,0,0,1-2-.22c-5.27-1.25-7.8-5.42-8.1-10.36a30.13,30.13,0,0,1,1.41-9.87c.58-2.07,1.67-5.3,4.31-5.3h9.65a2.87,2.87,0,0,1,2.65,1.78l1.64,4a8.63,8.63,0,0,1,8.63,8.63V39A8.63,8.63,0,0,1,46,47.64H20.61A8.63,8.63,0,0,1,12,39V31.12a8.63,8.63,0,0,1,8.63-8.63h0a3.33,3.33,0,0,0,3.33-3.33V19H17V20.3"></path><path class="cls-1" d="M36.4,29.3a4.09,4.09,0,1,0,4.09,4.09"></path><circle cx="39.49" cy="30.55" r="1"></circle></g></svg>
